X: 7605
T: Coffee Run
R: jig
M: 6/8
K: Emajor
(3GA_B|:Bec ~BGE|FED E2 C|B,EG CEA|GAG F (3GA_B|
Bec ~BGE|FED E2 C|B,EF GAG|1 FED E (3GA_B:|2 FED E (3FED||
CEE EFG|ABc Bed|cec BGE|(3FGA G FED|
CEE EFG|ABc Bed|cec BGE|FB,D ED=D|
CEE EFG|ABc Bed|cec BGE|FAG F (3GA_B|
Bec ~BGE|FED E2 C|B,EF GAG|FED E (3GA_B||

